assets/flags/jo.svg

<svg viewBox="0 0 840 420" xmlns="http://www.w3.org/2000/svg"><path d="m0 0h840v420h-840z" fill="#007a3d"/><path d="m0 0h840v280h-840z" fill="#fff"/><path d="m0 0h840v140h-840z"/><path d="m0 0v420l420-210z" fill="#ce1126"/><path d="m129.787138 180 6.508256 16.485467 16.946688-5.190161-8.831026 15.36688 14.623919 10.013442-17.520365 2.676719 1.28904 17.676719-13.016512-12.029066-13.016513 12.029066 1.28904-17.676719-17.520365-2.676719 14.623919-10.013442-8.831026-15.36688 16.946689 5.190161z" fill="#fff"/></svg>

<svg xmlns="http://www.w3.org/2000/svg" viewBox="0 0 840 420">
<rect width="840" height="420" fill="#007a3d"/>
<rect width="840" height="280" fill="#fff"/>
<rect width="840" height="140" fill="#000"/>
<path d="M0,0V420L420,210z" fill="#ce1126"/>
<path d="M129.787138,180 136.295394,196.485467 153.242082,191.295306 144.411056,206.662186 159.034975,216.675628 141.51461,219.352347 142.80365,237.029066 129.787138,225 116.770625,237.029066 118.059665,219.352347 100.5393,216.675628 115.163219,206.662186 106.332193,191.295306 123.278882,196.485467 129.787138,180z" fill="#fff"/>
</svg>
